svg/chevron_down.svg

<svg xmlns="http://www.w3.org/2000/svg" viewBox="0 0 32 32" enable-background="new 0 0 32 32"><path d="M 6.90625 6.59375 L 6.1875 7.28125 L 2.28125 11.1875 L 1.59375 11.90625 L 2.28125 12.59375 L 15.28125 25.59375 L 16 26.3125 L 16.71875 25.59375 L 29.71875 12.59375 L 30.40625 11.90625 L 29.71875 11.1875 L 25.8125 7.28125 L 25.09375 6.59375 L 24.40625 7.28125 L 16 15.6875 L 7.59375 7.28125 L 6.90625 6.59375 z M 6.875 9.4375 L 15.28125 17.8125 L 16 18.5 L 16.71875 17.8125 L 25.125 9.4375 L 27.5625 11.875 L 16 23.46875 L 4.4375 11.875 L 6.875 9.4375 z" color="#000" overflow="visible" enable-background="accumulate"/></svg>

<svg xmlns="http://www.w3.org/2000/svg" viewBox="0 0 32 32"><path d="M6.906 6.594l-.718.687-3.907 3.907-.686.72.687.687 13 13 .72.718.72-.718 13-13 .686-.688-.687-.72-3.907-3.905-.72-.686-.687.687L16 15.688 7.594 7.28l-.688-.686zm-.03 2.843l8.405 8.376.72.687.72-.688 8.405-8.375 2.438 2.438L16 23.47 4.437 11.874l2.438-2.438z"/></svg>
